!!!OTL: 1959. Das Leiden des Herrn.
!!!ODT: 1840
!!!ARE: Europa, Mitteleuropa, Deutschland, Schlesien, Glatz
!!!SCT: E1959
!!!TXL: @@NDS
!!!YEM: Copyright 1995, estate of Helmut Schaffrath.
**kern	**text
*ICvox	*
*M3/4	*
*k[b-e-a-d-]	*
*f:	*
=1	=1
!LO:TX:a:t=Langsam.	!
!LO:TX:a:t=Mel. mündlich aus Schleſten (Grafſchaft Glatʒ) 1840.	!
{4f	Als
4f	Chriſt
4f	der
=2	=2
(4.cc	Herr
8dd-)	.
4cc	in
=3	=3
(4.cc	Gar-
8b-)	.
4a-	-ten
=4	=4
2g	ging
4r}	.
=5	=5
{4b-	und
4b-	ihm
4b-	ſein
=6	=6
(4.b-/	bitt-
8a-)	.
4g	-res
=7	=7
4a-	Lei-
4b-	-den
4cc	an-
=8	=8
2f}	-fing,
{4cc	da
=9	=9
(<4b-\	trau-
4g)	.
8a-L	-ert
8gJ	.
=10	=10
2f	Laub
4e-	und
=11	=11
2a-	grü-
4b-	-nes
=12	=12
2cc	Gras,
4r}	.
=13	=13
{4cc	weil
4cc	Ju-
4cc	-das
=14	=14
2b-	ſein
4cc	Ver-
=15	=15
4a-	-rä-
2g	-ther
=16	=16
2f	was.
4r}	.
==	==
!!!AGN: geistlich, Fest - Lied, Biblischer Stoff, Passion
!!!ONB: ESAC (Essen Associative Code) Database: ERK3
!!!AMT: simple triple
!!!AIN: vox
!!!EED: Helmut Schaffrath
!!!EEV: 1.0
!!!RDF**kern: <= below
!!!GTL: Geistliche Lieder. 1. Christliche Festlieder: b) Osterkreis (Passionszeit, Ostern, Himmelfahrt, Pfingsten).
!!!URL-scan: https://rosdok.uni-rostock.de/mcrviewer/recordIdentifier/rosdok_ppn745177999/iview2/phys_0670.iview2?x=181.83986916417075&y=273.0288713327609&scale=0.7014306698522891&rotation=0&layout=singlePageLayout
!!!ENC: Anna Maria Matuszewska
!!!EEV: 2025/10/01
*-	*-
